brandFactory_export/1.Light/Sms _1Light.svg

<?xml version="1.0" encoding="UTF-8"?>
<svg width="24px" height="24px" viewBox="0 0 24 24" version="1.1" xmlns="http://www.w3.org/2000/svg" xmlns:xlink="http://www.w3.org/1999/xlink">
    <title>1.Light/Sms _1Light</title>
    <g id="Symbols" stroke="none" stroke-width="1" fill="none" fill-rule="evenodd">
        <g id="1.Light/Sms-_1Light" fill="#5CB615" fill-rule="nonzero">
            <path d="M22.6386555,15.389916 L22.6386555,4.64033613 C22.6386555,3.16470588 21.3915966,1.96134454 19.8588235,1.96134454 L3.76470588,1.96134454 C2.23193277,1.96134454 0.981512605,3.16134454 0.981512605,4.64033613 L0.981512605,15.389916 C0.981512605,16.6840336 1.85546218,17.7663866 3.10588235,18.0117647 C3.33445378,18.0588235 3.49915966,18.2537815 3.49915966,18.4789916 L3.49915966,21.0806723 C3.49915966,21.4067227 3.83529412,21.712605 4.18823529,21.712605 C4.30588235,21.712605 4.54789916,21.712605 4.79327731,21.3966387 L7.33445378,18.2504202 C7.42857143,18.1327731 7.57310924,18.0689076 7.7210084,18.0689076 L19.8521008,18.0689076 C21.3915966,18.0655462 22.6386555,16.8655462 22.6386555,15.389916 Z M19.8588235,1.01008403 C21.9327731,1.01008403 23.6235294,2.63697479 23.6235294,4.64033613 L23.6235294,15.389916 C23.6235294,17.3932773 21.9327731,19.0201681 19.8588235,19.0201681 L7.96638655,19.0201681 L5.57983193,21.9747899 C5.22689076,22.4319328 4.75966387,22.6672269 4.19159664,22.6672269 C3.28403361,22.6672269 2.51764706,21.9411765 2.51764706,21.0840336 L2.51764706,18.8487395 C1.01512605,18.3714286 0,17.0033613 0,15.389916 L0,4.64033613 C0,2.63697479 1.6907563,1.01008403 3.76470588,1.01008403 L19.8588235,1.01008403 Z M5.69411765,9.62184874 C6.5512605,9.95462185 7.62016807,10.3647059 7.62016807,11.7563025 C7.62016807,12.9865546 6.74621849,13.692437 5.22689076,13.692437 C4.46722689,13.692437 3.81512605,13.5277311 3.54957983,13.4302521 C3.37815126,13.3697479 3.28067227,13.1882353 3.32436975,13.0134454 L3.38823529,12.7546218 C3.41176471,12.6571429 3.4789916,12.5764706 3.56638655,12.5294118 C3.65714286,12.4789916 3.76134454,12.4689076 3.85882353,12.4991597 C4.7697479,12.7781513 5.85546218,12.7647059 6.27226891,12.4890756 C6.39663866,12.4117647 6.59831933,12.2134454 6.59831933,11.7697479 C6.59831933,11.0773109 6.1210084,10.8588235 5.27394958,10.5327731 C4.44033613,10.210084 3.40504202,9.80672269 3.40504202,8.49243697 C3.40504202,7.92773109 3.60336134,7.45714286 3.97983193,7.13445378 C4.61848739,6.58655462 5.78151261,6.50252101 7.03529412,6.85546218 C7.22352941,6.90588235 7.33781513,7.09411765 7.2907563,7.28571429 L7.22689076,7.53445378 C7.2,7.62857143 7.1394958,7.7092437 7.05210084,7.75630252 C6.96470588,7.80336134 6.86386555,7.81680672 6.76638655,7.78991597 C6.40336134,7.68235294 6.0302521,7.62857143 5.65042017,7.62521008 C4.41680672,7.62521008 4.41680672,8.20672269 4.41680672,8.45210084 C4.41680672,9.09411765 4.88067227,9.30588235 5.69411765,9.62184874 L5.69411765,9.62184874 Z M14.4941176,6.75793161 C14.6957983,6.75462185 14.8605042,6.91596639 14.8638655,7.11428571 L14.8638655,13.2084034 C14.8605042,13.410084 14.6957983,13.5681199 14.4941176,13.5647059 L14.2352941,13.5647059 C14.0336134,13.5681199 13.8689076,13.4067227 13.8655462,13.2084034 L13.8655462,9.07394958 L12.2521008,12.0352941 C12.1848739,12.1529412 12.0605042,12.2268908 11.9260504,12.2268908 L11.6504202,12.2268908 C11.512605,12.2268908 11.3882353,12.1529412 11.3210084,12.0319328 L9.77142857,9.11092437 L9.77142857,13.2117647 C9.76806723,13.4134454 9.60336134,13.5714286 9.40168067,13.5681199 L9.14285714,13.5681199 C8.94117647,13.5714286 8.77647059,13.410084 8.77310924,13.2117647 L8.77310924,7.11764706 C8.77310924,6.91932773 8.93781513,6.76134454 9.14285714,6.76134454 L9.42184874,6.76134454 C9.55966387,6.76134454 9.68739496,6.83529412 9.7512605,6.95630252 L11.8016807,10.8218487 L13.9092437,6.94957983 C13.9764706,6.83193277 14.1008403,6.75793161 14.2386555,6.75793161 L14.4941176,6.75793161 Z M18.389916,9.62184874 C19.2470588,9.95462185 20.3159664,10.3647059 20.3159664,11.7563025 C20.3159664,12.9865546 19.4420168,13.692437 17.9226891,13.692437 C17.1630252,13.692437 16.5109244,13.5277311 16.2453782,13.4302521 C16.0739496,13.3697479 15.9764706,13.1882353 16.0201681,13.0134454 L16.0840336,12.7546218 C16.107563,12.6571429 16.1747899,12.5764706 16.2621849,12.5294118 C16.3529412,12.4789916 16.4571429,12.4689076 16.5546218,12.4991597 C17.4655462,12.7781513 18.5512605,12.7647059 18.9680672,12.4890756 C19.092437,12.4117647 19.2941176,12.2134454 19.2941176,11.7697479 C19.2941176,11.0773109 18.8168067,10.8588235 17.9697479,10.5327731 C17.1361345,10.210084 16.097479,9.80672269 16.097479,8.49243697 C16.097479,7.92773109 16.2957983,7.45714286 16.6756303,7.13445378 C17.3142857,6.58655462 18.4773109,6.50252101 19.7310924,6.85546218 C19.9193277,6.90588235 20.0336134,7.09747899 19.9865546,7.28571429 L19.9226891,7.53445378 C19.8957983,7.62857143 19.8352941,7.7092437 19.7478992,7.75630252 C19.6605042,7.80336134 19.5563025,7.81680672 19.4621849,7.78991597 C19.0991597,7.68235294 18.7260504,7.62857143 18.3495798,7.62521008 C17.1159664,7.62521008 17.1159664,8.20672269 17.1159664,8.45210084 C17.1092437,9.09411765 17.5731092,9.30588235 18.389916,9.62184874 L18.389916,9.62184874 Z" id="Sms-_1Light"></path>
        </g>
    </g>
</svg>

<svg width="24" height="24" viewBox="0 0 24 24" xmlns="http://www.w3.org/2000/svg"><path d="M22.639 15.39V4.64c0-1.475-1.247-2.679-2.78-2.679H3.765c-1.533 0-2.783 1.2-2.783 2.68V15.39c0 1.294.873 2.376 2.124 2.622a.484.484 0 01.393.467v2.602c0 .326.336.632.69.632.117 0 .359 0 .604-.316l2.541-3.147a.494.494 0 01.387-.181h12.131c1.54-.003 2.787-1.203 2.787-2.68zm-2.78-14.38c2.074 0 3.765 1.627 3.765 3.63v10.75c0 2.003-1.691 3.63-3.765 3.63H7.966L5.58 21.975c-.353.457-.82.692-1.388.692-.908 0-1.674-.726-1.674-1.583v-2.235A3.592 3.592 0 010 15.389V4.64c0-2.003 1.69-3.63 3.765-3.63h16.094zM5.694 9.622c.857.333 1.926.743 1.926 2.134 0 1.23-.874 1.936-2.393 1.936-.76 0-1.412-.164-1.677-.262a.353.353 0 01-.226-.417l.064-.258a.353.353 0 01.178-.226c.091-.05.195-.06.293-.03.91.28 1.996.266 2.413-.01.125-.077.326-.276.326-.72 0-.692-.477-.91-1.324-1.236-.834-.323-1.869-.726-1.869-2.04 0-.565.198-1.036.575-1.359.638-.547 1.802-.631 3.055-.279.189.05.303.24.256.43l-.064.25a.361.361 0 01-.175.221.384.384 0 01-.286.034 4.039 4.039 0 00-1.116-.165c-1.233 0-1.233.582-1.233.827 0 .642.464.854 1.277 1.17zm8.8-2.864a.364.364 0 01.37.356v6.094a.362.362 0 01-.37.357h-.259a.364.364 0 01-.37-.357V9.074l-1.613 2.961a.377.377 0 01-.326.192h-.276a.375.375 0 01-.329-.195L9.771 9.11v4.1a.362.362 0 01-.37.357h-.258a.364.364 0 01-.37-.356V7.118c0-.199.165-.357.37-.357h.279c.138 0 .265.074.33.195l2.05 3.866 2.107-3.872a.379.379 0 01.33-.192h.255zm3.896 2.864c.857.333 1.926.743 1.926 2.134 0 1.23-.874 1.936-2.393 1.936-.76 0-1.412-.164-1.678-.262a.353.353 0 01-.225-.417l.064-.258a.353.353 0 01.178-.226c.09-.05.195-.06.293-.03.91.28 1.996.266 2.413-.01.124-.077.326-.276.326-.72 0-.692-.477-.91-1.324-1.236-.834-.323-1.873-.726-1.873-2.04 0-.565.199-1.036.579-1.359.638-.547 1.801-.631 3.055-.279.188.05.303.242.256.43l-.064.25a.361.361 0 01-.175.221.386.386 0 01-.286.034 4.034 4.034 0 00-1.112-.165c-1.234 0-1.234.582-1.234.827-.007.642.457.854 1.274 1.17z" fill="#5CB615" fill-rule="nonzero"/></svg>
